assets/icons/icon_temperature.svg

<svg width="30" height="30" viewBox="0 0 30 30" fill="none" xmlns="http://www.w3.org/2000/svg">
<g clip-path="url(#clip0_58_3339)">
<mask id="mask0_58_3339" style="mask-type:alpha" maskUnits="userSpaceOnUse" x="0" y="0" width="30" height="30">
<mask id="mask1_58_3339" style="mask-type:luminance" maskUnits="userSpaceOnUse" x="15" y="0" width="13" height="30">
<path fill-rule="evenodd" clip-rule="evenodd" d="M18.7732 2.98561C18.7732 1.33718 20.1285 0 21.8004 0C23.4722 0 24.8275 1.33631 24.8275 2.98473V18.7069C26.6372 19.739 27.8546 21.6682 27.8546 23.8777C27.8546 27.1745 25.1441 29.8471 21.8004 29.8471C18.4566 29.8471 15.7461 27.1745 15.7461 23.8777C15.7461 21.6682 16.9635 19.739 18.7732 18.7069V2.98561Z" fill="white"/>
</mask>
<g mask="url(#mask1_58_3339)">
<path d="M24.8276 18.707H22.6957V19.9453L23.7713 20.5589L24.8276 18.707ZM18.7733 18.707L19.8296 20.5589L20.9053 19.9453V18.707H18.7733ZM21.8005 -2.13184C18.9796 -2.13184 16.6414 0.130704 16.6414 2.98484L20.9053 2.98571C20.9053 2.54299 21.2776 2.13204 21.8005 2.13204V-2.13184ZM26.9595 2.98484C26.9595 0.130704 24.6212 -2.13184 21.8005 -2.13184V2.13204C22.3233 2.13204 22.6957 2.54212 22.6957 2.98484H26.9595ZM22.6957 2.98484V18.707H26.9595V2.98484H22.6957ZM29.9867 23.8778C29.9867 20.8616 28.3222 18.2459 25.8839 16.8551L23.7713 20.5589C24.9523 21.2324 25.7228 22.4749 25.7228 23.8778H29.9867ZM21.8005 31.9792C26.2931 31.9792 29.9867 28.3803 29.9867 23.8778H25.7228C25.7228 25.9689 23.9952 27.7153 21.8005 27.7153V31.9792ZM13.6143 23.8778C13.6143 28.3803 17.3078 31.9792 21.8005 31.9792V27.7153C19.6057 27.7153 17.8781 25.9689 17.8781 23.8778H13.6143ZM17.7171 16.8551C15.2787 18.2459 13.6143 20.8616 13.6143 23.8778H17.8781C17.8781 22.4749 18.6486 21.2324 19.8296 20.5589L17.7171 16.8551ZM20.9053 18.707V2.98571L16.6414 2.98484V18.707H20.9053Z" fill="#030303"/>
</g>
<path d="M23.8044 2.15088H19.7529V10.1402H23.8044V2.15088Z" fill="#030303"/>
<path fill-rule="evenodd" clip-rule="evenodd" d="M13.079 23.7597C11.0144 26.7139 4.3546 23.9721 1.83105 19.6624C6.59917 16.9481 14.0825 18.1711 13.643 22.2026C12.8003 21.2072 11.3436 20.1647 9.40705 20.4831C6.80256 20.9111 6.51317 21.0181 6.69404 21.0181C8.55662 21.0181 12.2583 21.5808 13.079 23.7597Z" fill="#030303"/>
<path fill-rule="evenodd" clip-rule="evenodd" d="M13.4806 18.4939C10.905 18.4572 9.92306 13.5138 11.5036 10.3545C14.9991 12.0545 17.2116 16.8787 14.632 18.2089C14.8948 17.3284 14.9444 16.0731 13.9929 15.0742C12.7132 13.7309 12.5354 13.605 12.6066 13.71C13.339 14.791 14.4586 17.1606 13.4806 18.4939Z" fill="#030303"/>
</mask>
<g mask="url(#mask0_58_3339)">
<rect width="30" height="30" fill="white"/>
</g>
</g>
<defs>
<clipPath id="clip0_58_3339">
<rect width="30" height="30" fill="white"/>
</clipPath>
</defs>
</svg>

<svg xmlns="http://www.w3.org/2000/svg" width="30" height="30" fill="none" viewBox="0 0 30 30"><g clip-path="url(#a)"><mask id="c" width="30" height="30" x="0" y="0" maskUnits="userSpaceOnUse" style="mask-type:alpha"><mask id="b" width="13" height="30" x="15" y="0" maskUnits="userSpaceOnUse" style="mask-type:luminance"><path fill="#fff" fill-rule="evenodd" d="M18.773 2.986C18.773 1.337 20.128 0 21.8 0s3.028 1.336 3.028 2.985v15.722c1.81 1.032 3.027 2.961 3.027 5.17 0 3.297-2.71 5.97-6.055 5.97-3.343 0-6.054-2.673-6.054-5.97 0-2.209 1.217-4.138 3.027-5.17z" clip-rule="evenodd"/></mask><g mask="url(#b)"><path fill="#030303" d="M24.828 18.707h-2.132v1.238l1.075.614zm-6.055 0 1.057 1.852 1.075-.614v-1.238zm3.028-20.839c-2.821 0-5.16 2.263-5.16 5.117h4.264c0-.442.373-.853.895-.853zm5.159 5.117c0-2.854-2.339-5.117-5.16-5.117v4.264c.523 0 .896.41.896.853zm-4.264 0v15.722h4.263V2.985zm7.29 20.893c0-3.016-1.664-5.632-4.102-7.023L23.77 20.56c1.181.673 1.952 1.916 1.952 3.319zM21.8 31.979c4.493 0 8.187-3.599 8.187-8.101h-4.264c0 2.09-1.728 3.837-3.922 3.837zm-8.186-8.101c0 4.502 3.694 8.101 8.186 8.101v-4.264c-2.194 0-3.922-1.746-3.922-3.837zm4.103-7.023c-2.438 1.39-4.103 4.007-4.103 7.023h4.264c0-1.403.77-2.646 1.952-3.32zm3.188 1.852V2.986l-4.264-.001v15.722z"/></g><path fill="#030303" d="M23.804 2.15h-4.051v7.99h4.051z"/><path fill="#030303" fill-rule="evenodd" d="M13.079 23.76c-2.065 2.954-8.724.212-11.248-4.098 4.768-2.714 12.252-1.49 11.812 2.54-.843-.995-2.3-2.037-4.236-1.719-2.604.428-2.894.535-2.713.535 1.863 0 5.564.563 6.385 2.742M13.48 18.494c-2.575-.037-3.557-4.98-1.976-8.14 3.495 1.7 5.708 6.525 3.128 7.855.263-.88.312-2.136-.64-3.135-1.279-1.343-1.457-1.469-1.385-1.364.732 1.081 1.852 3.45.874 4.784" clip-rule="evenodd"/></mask><g mask="url(#c)"><path fill="#fff" d="M0 0h30v30H0z"/></g></g><defs><clipPath id="a"><path fill="#fff" d="M0 0h30v30H0z"/></clipPath></defs></svg>
